map_marker_monochrome/openmoji_android.svg

<svg xmlns="http://www.w3.org/2000/svg" width="24" height="24" viewBox="0 0 24 24"> <g transform="translate(0.0 4.247453999999999) scale(0.375)">
  
  <g
     id="line"
     transform="translate(-4,-14.653089)">
    <path
       fill="#000"
       d="m 20.653,27.0593 0.4958,0.8684 c 0.2311,-0.1319 0.4001,-0.3504 0.4695,-0.6072 0.0695,-0.2569 0.0338,-0.5308 -0.0992,-0.7612 z M 5.01582,55 4.01633,55.0317 C 4.03343,55.5714 4.47587,56 5.01582,56 Z m 61.96838,0 v 1 c 0.5399,0 0.9824,-0.4286 0.9995,-0.9683 z M 51.347,27.0593 l -0.8661,-0.5 c -0.133,0.2304 -0.1687,0.5043 -0.0992,0.7612 0.0695,0.2568 0.2384,0.4753 0.4695,0.6072 z m 4.853,-8.4057 0.866,0.5 v 0 z m -0.7321,-2.7321 0.5,-0.866 z m -2.732,0.7321 -0.866,-0.5 v 0 z m -4.9928,8.6478 -0.3791,0.9254 c 0.463,0.1897 0.9949,0.008 1.2451,-0.4254 z m -23.4861,0 -0.8661,0.5 c 0.2502,0.4333 0.7821,0.6151 1.2451,0.4254 z m -4.9929,-8.6478 -0.866,0.5 v 0 z m -2.732,-0.7321 -0.5,-0.866 v 0 z m -0.7321,2.7321 -0.866,0.5 v 0 z M 6,54 C 6,42.836 12.0976,33.095 21.1488,27.9277 L 20.1573,26.1908 C 10.508,31.6995 4,42.0891 4,54 Z m 0.01532,0.9683 C 6.00513,54.6468 6,54.324 6,54 H 4 c 0,0.3452 0.00547,0.6891 0.01633,1.0317 z M 66.9842,54 H 5.01582 v 2 H 66.9842 Z M 66,54 c 0,0.324 -0.0051,0.6468 -0.0153,0.9683 l 1.999,0.0634 C 67.9945,54.6891 68,54.3452 68,54 Z M 50.8512,27.9277 C 59.9024,33.095 66,42.836 66,54 h 2 C 68,42.0891 61.492,31.6995 51.8427,26.1909 Z m 4.4828,-9.7741 -4.8531,8.4057 1.7321,1 4.853,-8.4057 z m -0.3661,-1.366 c 0.4783,0.2761 0.6422,0.8877 0.3661,1.366 l 1.732,1 c 0.8285,-1.4349 0.3368,-3.2697 -1.0981,-4.0981 z m -1.366,0.366 c 0.2762,-0.4783 0.8878,-0.6422 1.366,-0.366 l 1,-1.7321 c -1.4348,-0.8284 -3.2696,-0.3368 -4.098,1.0981 z m -4.9928,8.6478 4.9928,-8.6478 -1.732,-1 -4.9929,8.6478 z M 36,24 c 4.0239,0 7.8603,0.7917 11.364,2.2268 l 0.7581,-1.8507 C 44.382,22.8441 40.2883,22 36,22 Z M 24.636,26.2268 C 28.1397,24.7917 31.9761,24 36,24 v -2 c -4.2883,0 -8.382,0.8441 -12.1221,2.3761 z m 0.487,-1.4254 -4.9929,-8.6478 -1.732,1 4.9928,8.6478 z m -4.9929,-8.6478 c -0.8284,-1.4349 -2.6632,-1.9265 -4.098,-1.0981 l 0.9999,1.7321 c 0.4783,-0.2762 1.0899,-0.1123 1.3661,0.366 z m -4.098,-1.0981 c -1.4349,0.8284 -1.9266,2.6632 -1.0981,4.0981 l 1.732,-1 c -0.2761,-0.4783 -0.1122,-1.0899 0.3661,-1.366 z m -1.0981,4.0981 4.853,8.4057 1.7321,-1 -4.8531,-8.4057 z"
       id="path2" />
    <circle
       cx="22.5"
       cy="42.5"
       r="2.5"
       fill="#000"
       id="circle4" />
    <circle
       cx="49.5"
       cy="42.5"
       r="2.5"
       fill="#000"
       id="circle6" />
  </g>
</g></svg>

<svg xmlns="http://www.w3.org/2000/svg" width="24" height="24" viewBox="0 0 24 24"> <g transform="scale(0.333333333)">  <g id="line">
    <path fill="#000" d="M20.653 27.0593L21.1488 27.9277C21.3799 27.7958 21.5489 27.5773 21.6183 27.3205C21.6878 27.0636 21.6521 26.7897 21.5191 26.5593L20.653 27.0593ZM5.01582 55L4.01633 55.0317C4.03343 55.5714 4.47587 56 5.01582 56V55ZM66.9842 55V56C67.5241 56 67.9666 55.5714 67.9837 55.0317L66.9842 55ZM51.347 27.0593L50.4809 26.5593C50.3479 26.7897 50.3122 27.0636 50.3817 27.3205C50.4512 27.5773 50.6201 27.7958 50.8512 27.9277L51.347 27.0593ZM56.2 18.6536L57.066 19.1536L57.066 19.1536L56.2 18.6536ZM55.4679 15.9215L55.9679 15.0555L55.4679 15.9215ZM52.7359 16.6536L51.8699 16.1536L51.8699 16.1536L52.7359 16.6536ZM47.7431 25.3014L47.364 26.2268C47.827 26.4165 48.3589 26.2348 48.6091 25.8014L47.7431 25.3014ZM24.257 25.3014L23.3909 25.8014C23.6411 26.2347 24.173 26.4165 24.636 26.2268L24.257 25.3014ZM19.2641 16.6536L18.3981 17.1536L18.3981 17.1536L19.2641 16.6536ZM16.5321 15.9215L16.0321 15.0555L16.0321 15.0555L16.5321 15.9215ZM15.8 18.6536L14.934 19.1536L14.934 19.1536L15.8 18.6536ZM6 54C6 42.836 12.0976 33.095 21.1488 27.9277L20.1573 26.1908C10.508 31.6995 4 42.0891 4 54H6ZM6.01532 54.9683C6.00513 54.6468 6 54.324 6 54H4C4 54.3452 4.00547 54.6891 4.01633 55.0317L6.01532 54.9683ZM66.9842 54H5.01582V56H66.9842V54ZM66 54C66 54.324 65.9949 54.6468 65.9847 54.9683L67.9837 55.0317C67.9945 54.6891 68 54.3452 68 54H66ZM50.8512 27.9277C59.9024 33.095 66 42.836 66 54H68C68 42.0891 61.492 31.6995 51.8427 26.1909L50.8512 27.9277ZM55.334 18.1536L50.4809 26.5593L52.213 27.5593L57.066 19.1536L55.334 18.1536ZM54.9679 16.7876C55.4462 17.0637 55.6101 17.6753 55.334 18.1536L57.066 19.1536C57.8945 17.7187 57.4028 15.8839 55.9679 15.0555L54.9679 16.7876ZM53.6019 17.1536C53.8781 16.6753 54.4897 16.5114 54.9679 16.7876L55.9679 15.0555C54.5331 14.2271 52.6983 14.7187 51.8699 16.1536L53.6019 17.1536ZM48.6091 25.8014L53.6019 17.1536L51.8699 16.1536L46.877 24.8014L48.6091 25.8014ZM36 24C40.0239 24 43.8603 24.7917 47.364 26.2268L48.1221 24.3761C44.382 22.8441 40.2883 22 36 22V24ZM24.636 26.2268C28.1397 24.7917 31.9761 24 36 24V22C31.7117 22 27.618 22.8441 23.8779 24.3761L24.636 26.2268ZM25.123 24.8014L20.1301 16.1536L18.3981 17.1536L23.3909 25.8014L25.123 24.8014ZM20.1301 16.1536C19.3017 14.7187 17.4669 14.2271 16.0321 15.0555L17.032 16.7876C17.5103 16.5114 18.1219 16.6753 18.3981 17.1536L20.1301 16.1536ZM16.0321 15.0555C14.5972 15.8839 14.1055 17.7187 14.934 19.1536L16.666 18.1536C16.3899 17.6753 16.5538 17.0637 17.0321 16.7876L16.0321 15.0555ZM14.934 19.1536L19.787 27.5593L21.5191 26.5593L16.666 18.1536L14.934 19.1536Z"/>
    <circle cx="22.5" cy="42.5" r="2.5" fill="#000"/>
    <circle cx="49.5" cy="42.5" r="2.5" fill="#000"/>
  </g></g></svg>
